imgs/icon-coffee.svg

<svg height="24" viewBox="0 0 24 24" width="24" xmlns="http://www.w3.org/2000/svg"><path d="m3 20c0 .553.447 1 1 1h12c.553 0 1-.447 1-1v-2h3c.553 0 1-.447 1-1v-7c0-.553-.447-1-1-1h-3v-1c0-.553-.447-1-1-1h-12c-.553 0-1 .447-1 1zm16-9v5h-2v-5zm-14-2h10v10h-10zm0-7h2v3h-2zm4 0h2v3h-2zm4 0h2v3h-2z"/></svg>

<svg xmlns="http://www.w3.org/2000/svg" width="24" height="24" viewBox="0 0 24 24"><path d="M3 20c0 .553.447 1 1 1h12c.553 0 1-.447 1-1v-2h3c.553 0 1-.447 1-1v-7c0-.553-.447-1-1-1h-3V8c0-.553-.447-1-1-1H4C3.447 7 3 7.447 3 8V20zM19 11v5h-2v-5H19zM5 9h10v10H5V9zM5 2H7V5H5zM9 2H11V5H9zM13 2H15V5H13z"/></svg>
